sprite_icons/dashboard.svg

<svg xmlns="http://www.w3.org/2000/svg" width="16" height="16" viewBox="0 0 16 16">
  <path fill="#000000" d="M7.70877227,10.0210504 L8.40526565,7.42170174 C8.47673656,7.15496869 8.75090504,6.99667744 9.01763809,7.06814835 C9.28437114,7.13961925 9.44266239,7.41378773 9.37119148,7.68052078 L8.71448111,10.1313973 C9.46619828,10.4189979 10,11.1471609 10,12 L6,12 C6,10.9943479 6.74223475,10.1620541 7.70877227,10.0210504 L7.70877227,10.0210504 Z M0.000615582707,8.89972261 C0.0543204435,4.52765517 3.61519622,1 8,1 C12.3848038,1 15.9456796,4.52765517 15.9993844,8.89972261 L16,8.89999962 L16,12.5 C16,13.8807119 14.8807119,15 13.5,15 L2.5,15 C1.11928813,15 0,13.8807119 0,12.5 L0,8.89999962 L0.000615582707,8.89972261 Z M14,9 C14,5.6862915 11.3137085,3 8,3 C4.6862915,3 2,5.6862915 2,9 L2,12.5 C2,12.7761424 2.22385763,13 2.5,13 L13.5,13 C13.7761424,13 14,12.7761424 14,12.5 L14,8.99999983 L14,9 Z M3.5,9 C3.22385763,9 3,8.77614237 3,8.5 C3,8.22385763 3.22385763,8 3.5,8 C3.77614237,8 4,8.22385763 4,8.5 C4,8.77614237 3.77614237,9 3.5,9 Z M12.5,9 C12.2238576,9 12,8.77614237 12,8.5 C12,8.22385763 12.2238576,8 12.5,8 C12.7761424,8 13,8.22385763 13,8.5 C13,8.77614237 12.7761424,9 12.5,9 Z M5.5,6 C5.22385763,6 5,5.77614237 5,5.5 C5,5.22385763 5.22385763,5 5.5,5 C5.77614237,5 6,5.22385763 6,5.5 C6,5.77614237 5.77614237,6 5.5,6 Z M10.5,6 C10.2238576,6 10,5.77614237 10,5.5 C10,5.22385763 10.2238576,5 10.5,5 C10.7761424,5 11,5.22385763 11,5.5 C11,5.77614237 10.7761424,6 10.5,6 Z"/>
</svg>

<svg xmlns="http://www.w3.org/2000/svg" width="16" height="16" viewBox="0 0 16 16"><path d="M7.709 10.021l.696-2.6a.5.5 0 0 1 .966.26l-.657 2.45A2 2 0 0 1 10 12H6a2 2 0 0 1 1.709-1.979zM0 8.9a8 8 0 0 1 15.998 0H16v3.6a2.5 2.5 0 0 1-2.5 2.5h-11A2.5 2.5 0 0 1 0 12.5V8.9zM14 9A6 6 0 1 0 2 9v3.5a.5.5 0 0 0 .5.5h11a.5.5 0 0 0 .5-.5V9zM3.5 9a.5.5 0 1 1 0-1 .5.5 0 0 1 0 1zm9 0a.5.5 0 1 1 0-1 .5.5 0 0 1 0 1zm-7-3a.5.5 0 1 1 0-1 .5.5 0 0 1 0 1zm5 0a.5.5 0 1 1 0-1 .5.5 0 0 1 0 1z"/></svg>
